!!!CDT:
!!!PTL: Musiche: Libro secondo a voce sola e basso continuo 
!!!PPP: Venice
!!!PPR: Ricciardo Amadino
!!!PDT: 1613
!!!RISM: B 1916
!!!rime:
!!!AGN: Madrigal
!!!SCT: Tsg12096f
!!!SCA: Tsg12096f
!!!voices:
!!!COM: Benedetti, Piero
!!!OTL: Giunto a la tomba ove al suo spirto vivo
**kern	**fb	**kern	**text
*part2	*part2	*part1	*part1
*staff2	*staff2	*staff1	*staff1
*I"[Basso continuo]	*	*I"[Canto]	*
*I'Bc	*	*I'C	*
*oclefF4	*	*oclefC1	*
*clefF4	*	*clefG2	*
*k[]	*	*k[]	*
*C:	*	*C:	*
*omet(C)	*	*omet(C)	*
*M4/4	*	*M4/4	*
=1	=1	=1	=1
!!LO:TX:a:t=Aria per Ottave.
1GG	.	8r	.
.	.	8dd	Giun-
.	.	8g	-t'al-
.	.	8a	-la
.	.	2b	tom-
=2	=2	=2	=2
2G	.	2b	-ba
2GG	.	8r	.
.	.	8b	ov'al
.	.	8b	suo
.	.	8b	spir-
=3	=3	=3	=3
2G	.	4dd	-to
.	.	16gL	.
.	.	16a	.
.	.	16b	.
.	.	16aJ	.
2E	.	16bL	.
.	.	8.aJ	.
.	.	16bL	.
.	.	8.gJ	.
=4	=4	=4	=4
1D	#	2a	vi-
.	.	2a	-vo
=5	=5	=5	=5
1D	.	4r	.
.	.	8a	Do-
.	.	8f#X	-lo-
.	.	4f#X	-ro-
.	.	8f#X	-sa
.	.	8e	pri-
=6	=6	=6	=6
2D	.	4.f#X	-gion
.	.	8a	il
2AA	.	4.cc	Ciel
.	.	8ee	pre-
=7	=7	=7	=7
1E	#	2b	-scris-
.	.	2b	-se,
=8	=8	=8	=8
1C	.	4ee	Pal-
.	.	8cc	-li-
.	.	8cc	-do,
.	.	4.cc	fred-
.	.	8b	-do,
=9	=9	=9	=9
1C	.	2cc	mu-
.	.	2cc	-to,
=10	=10	=10	=10
2C	.	4cc	e
.	.	8.cc	qua-
.	.	16b	-si
2GG	.	2dd	pri-
=11	=11	=11	=11
2G	.	2dd	-vo
2GG	.	8r	.
.	.	8b	Di
.	.	8a	mo-
.	.	8g	-vi-
=12	=12	=12	=12
1D	#	2a	-men-
.	.	4a	-to,
.	.	8r	.
.	.	8b	al
=13	=13	=13	=13
2BB	.	4.b	mar-
.	.	8a	-mo
2C#X	.	4a	gl'oc-
.	.	8aL	-chi af-
.	.	16b	.
.	.	16ccJ	.
=14	=14	=14	=14
(2D	4	1a	-fis-
2D)	#	.	.
=15	=15	=15	=15
1GG	.	1g	-se.
=16	=16	=16	=16
2G	.	8r	.
.	.	8dd	Al
.	.	8g	fin
.	.	8a	sgor-
2GG	.	2b	-gan-
=17	=17	=17	=17
2G	.	2b	-do
2E	.	8r	.
.	.	8b	un
.	.	8b	la-
.	.	8b	-gri-
=18	=18	=18	=18
1D	#	4dd	-mo-
.	.	16gL	-so
.	.	16a	.
.	.	16b	.
.	.	16aJ	.
.	.	16bL	.
.	.	8.aJ	.
.	.	16bL	.
.	.	8.gJ	.
=19	=19	=19	=19
1D	.	2a	ri-
.	.	2a	-vo,
=20	=20	=20	=20
2D	.	4r	.
.	.	8a	In
.	.	8f#X	un
2AA	.	4f#X	lan-
.	.	8f#X	-gui-
.	.	8a	-do hoi-
=21	=21	=21	=21
1E	#	4.f#X	-mè
.	.	8a	pro-
.	.	4.cc	-rup-
.	.	8ee	-pe e
=22	=22	=22	=22
1C	.	2b	dis-
.	.	2b	-se:
=23	=23	=23	=23
1C	.	8r	.
.	.	8ee	"O
.	.	8.cc	sas-
.	.	16b	-'sa-
.	.	2cc	-ma-
=24	=24	=24	=24
2G	.	4cc	-to
.	.	8r	.
.	.	8cc	ed
2GG	.	8cc	ho-
.	.	8cc	-no-
.	.	8.cc	-ra-
.	.	16b	-to
=25	=25	=25	=25
2G	.	2dd	tan-
2D	.	4.dd	-to
.	.	8b	Che
=26	=26	=26	=26
4D	.	8b	.
.	.	8b	den-
4BB	.	8a	-tr'hai
.	.	8g	le
2C#X	.	2a	fiam-
=27	=27	=27	=27
(2D	4	4a	-me
.	.	8r	.
.	.	8b	e
2D)	3	4b	fo-
.	.	8aL	-ra il
.	.	16b	.
.	.	16ccJ	.
=28	=28	=28	=28
1GGl	.	1a	pian-
=29	=29	=29	=29
1r	.	1gl	-to."
==	==	==	==
*-	*-	*-	*-
!!!system-decoration: [*]
!!!RDF**kern: i = editorial accidental
!!!RDF**kern: l = terminal long
!!!ENC: Emiliano Ricciardi
!!!END:
!!!EED: Ricciardi, Emiliano
!!!EEV: 2020/02/23
!!!YEC: Copyright 2018 Emiliano Ricciardi, All Rights Reserved
!!!ONB: Translated from MusicXML on 2020/02/23
!!@@BEGIN:	VERSEDATA
!!@CATALOGNUM:	Tsg12096
!!@LAST_MODIFIED: 2020/07/12
!!@TITLE:		Giunto a la tomba ove al suo spirto vivo
!!@CANTO:		XII
!!@OTTAVA:	96
!!@MANUSRC:	G-Al, G-Am, G-Au, G-Br<sub>1</sub>, G-Br<sub>2</sub>, G-Cv, G-Es<sub>1</sub>, G-Es<sub>2</sub>, G-Es<sub>3</sub>, G-F, G-Fr, G-Fr<sub>1</sub>, G-Fr<sub>2</sub>, G-Mc, G-Mc<sub>1</sub>, G-Mg, G-Mr, G-Mt, G-N, G-Ol
!!@PRINTSRC:	G-1580CM, G-1581B, G-1581CV, G-1581R, G-1581MR, G-1581P, G-1581V, G-1581V<sub>bis</sub>, G-1582C, G-1582M, G-1582MC, G-1582P, G-1582SC, G-1582SC<sub>bis</sub>, G-1583S, G-1584O, G-1584S, G-1585C, G-1585S, G-1588S, G-1589S, G-1590B, G-1590S, G-1592S, G-1593S, G-1594C, G-1595C, G-1597C, G-1598C, G-1599C, G-1600C, G-1600S, G-1601C, G-1601R, G-1602C, G-1604C, G-1604Cl, G-1604F, G-1604P, G-1606B, G-1606B<sub>bis</sub>, G-1606L, G-1607ZR, G-1608DP, G-1609GC, G-1610M, G-1611S, G-1611V, G-1612P, G-1613M, G-1613P, G-1613V, G-1615P, G-1616M, G-1617P, G-1619B, G-1619V, G-1620M, G-1620S, G-1621R, G-1624I, G-1624MT, G-1625C, G-1625S, G-1625SS, G-1626C, G-1626Co, G-1627M, G-1628T, G-1628Tu, G-1630L, G-1630T, G-1632FT, G-1639CF, G-1642M, G-1643I, G-1644P, G-1644S
!!@@BEGIN:	VERSES
!!@ABOUTIT:
!!@ABOUTEN:
!!@EDITOR:	Angelo Solerti
!!@EDITION_TITLE: Gerusalemme liberata. Poema eroico di Torquato Tasso. Edizione critica sui manoscritti e le prime stampe.
!!@EDITION_LOC:	Florence
!!@EDITION_PUB:	G. Barbera
!!@EDITION_DATE:  1895
!!@EDITION_VOL:
!!@EDITION_PAGE:
!!@TRANSLATOR:	Emiliano Ricciardi and Amyrose McCue Gill
!!@VERSE:
!!	Giunto a la tomba ove al suo spirto vivo
!!	Dolorosa prigione il Ciel prescrisse;
!!	Pallido, freddo, muto, e quasi privo
!!	Di movimento, al marmo gli occhi affisse.
!!	Alfin sgorgando un lagrimoso rivo,
!!	In un languido oimè proruppe, e disse:
!!	"O sasso amato ed onorato tanto
!!	Che dentro hai le mie fiamme, e fuori il pianto:"
!!@MVERSE_DATE: 20230824
!!@MVERSE:
!!	Giun||to_a la tom||ba_o||ve_al suo spir||to vi||vo		=a
!!	Do|lo|ro||sa pri|gio||ne_il Ciel pre|scris||se;			=b
!!	Pal||li|do, fred||do, mu||to,_e qua||si pri||vo			=a*
!!	Di mo|vi|men||to,_al mar||mo gli_oc||chi_af|fis||se.		=b
!!	Al|fin|| sgor|gan||do_un la|gri|mo||so ri||vo,			=a
!!	In un lan||gui|do_oi|mè|| pro|rup||pe,_e dis||se:		=b
!!	"O sas||so_a|ma||to_ed o|no|ra||to tan||to			=c*
!!	Che den||tro_hai le mie fiam||me,_e fuo||ri_il pian||to:"	=c
!!@TVERSE:
!![Having] reached the tomb where for her living spirit
!!	A sorrowful prison Heaven mandated;
!!	Pale, cold, mute, and almost lacking
!!	In movement, upon marble he fixed his eyes.
!!	At last disgorging a tearful river,
!!	With a weak “Oh dear” burst forth, and he said:
!!	"O stone, beloved and so honored
!!	That within you have my flames, and without my tears:"
!!@@END:		VERSES
!!@OTHER_CRIT_ED:  Torquato Tasso, <i>Gerusalemme liberata</i>, ed. Lanfranco Caretti, 2 vols. (Bari: Laterza, 1967).
!!@ATTRIBUTION_ABOUT:
!!@DATING:	mid-1560s through 1570s
!!@DEDICATEE:	Duke Alfonso II d'Este
!!@COMMENTARY:
!!@@END:		VERSEDATA
!!@@BEGIN: SETTING
!!@CATALOGNUM:	Tsg12096f
!!@CANTO:		XII
!!@OTTAVA:	96
!!@TITLE:	Giunto a la tomba ove al suo spirto vivo
!!@SETTINGTITLE: Giunt'alla tomba, ov'al suo spirto vivo
!!@COMPOSER:	Benedetti, Piero
!!@PARTS:		1 of 1
!!@PRINCEPSTITLE:	Musiche: Libro secondo a voce sola e basso continuo 
!!@PRINCEPSLOC:	Venice
!!@NORMLOC:	Venice
!!@NORMPUB:	Ricciardo Amadino
!!@NORMPUBSHORT:	Amadino
!!@PRINCEPSPUB:	Ricciardo Amadino
!!@PRINCEPSYEAR:	1613
!!@PRINCEPSRISM:	B 1916
!!@OVOICES:	1+bc
!!@EXTANTVOICES:	1+bc
!!@OMENSURATION:	C
!!@OCLEFS:	C1,F4
!!@OTIME:		
!!@OKEYSIG:	-
!!@FINAL:		G
!!@TIMPEDITOR:	Ricciardi, Emiliano
!!@REPRINTS:	
!!@@END: SETTING
